svg/nature/mountain_line.svg

<svg xmlns="http://www.w3.org/2000/svg" width="24" height="24" viewBox="0 0 24 24"><g fill="none" fill-rule="evenodd"><path d="M24,0 L24,24 L0,24 L0,0 L24,0 Z M12.5935,23.2578 L12.5819,23.2595 L12.5109,23.295 L12.4919,23.2987 L12.4767,23.295 L12.4057,23.2595 C12.3958,23.2564 12.387,23.259 12.3821,23.2649 L12.378,23.2758 L12.3609,23.7031 L12.3659,23.7235 L12.3769,23.7357 L12.4805,23.8097 L12.4953,23.8136 L12.5071,23.8097 L12.6107,23.7357 L12.6233,23.7197 L12.6267,23.7031 L12.6096,23.2758 C12.6076,23.2657 12.601,23.2593 12.5935,23.2578 Z M12.8584,23.1453 L12.8445,23.1473 L12.6598,23.2397 L12.6499,23.2499 L12.6472,23.2611 L12.6651,23.6906 L12.6699,23.7034 L12.6784,23.7105 L12.8793,23.8032 C12.8914,23.8069 12.9022,23.803 12.9078,23.7952 L12.9118,23.7812 L12.8777,23.1665 C12.8753,23.1546 12.8674,23.147 12.8584,23.1453 Z M12.143,23.1473 C12.1332,23.1424 12.1222,23.1453 12.1156,23.1526 L12.1099,23.1665 L12.0758,23.7812 C12.0751,23.7927 12.0828,23.8019 12.0926,23.8046 L12.1083,23.8032 L12.3092,23.7105 L12.3186,23.7024 L12.3225,23.6906 L12.3404,23.2611 L12.3372,23.2485 L12.3278,23.2397 L12.143,23.1473 Z"/><path fill="#09244B" d="M3.78846,17.2913 C3.63977,17.5722 3.51151,17.8107 3.40863,18.0002 L3,18.0002 C2.44772,18.0002 2,18.4479 2,19.0002 C2,19.5525 2.44772,20.0002 3,20.0002 L21,20.0002 C21.5523,20.0002 22,19.5525 22,19.0002 C22,18.4479 21.5523,18.0002 21,18.0002 L20.5914,18.0002 C20.4885,17.8107 20.3602,17.5722 20.2115,17.2913 C19.8024,16.5185 19.2393,15.4266 18.6248,14.1527 C17.3905,11.5934 15.9709,8.34393 15.1631,5.48168 C14.9212,4.62434 14.1413,4.00022 13.2192,4.00022 C13.0645,4.00022 12.9089,3.99222 12.7575,4.03008 L12,4.21944 L11.2425,4.03008 C11.0911,3.99222 10.9355,4.00022 10.7808,4.00022 C9.85868,4.00022 9.07882,4.62434 8.83688,5.48168 C8.02914,8.34393 6.60949,11.5934 5.37517,14.1527 C4.76075,15.4266 4.19764,16.5185 3.78846,17.2913 Z M10.7617,6.02487 C10.5306,6.84386 10.2539,7.6878 9.94852,8.53452 L10.726,9.31205 L11.1056,8.553 C11.2493,8.2655 11.5225,8.06462 11.8398,8.01313 C12.1571,7.96164 12.4798,8.06582 12.7071,8.29311 L13.726,9.31205 L14.0781,8.60802 C13.7621,7.73666 13.4761,6.86755 13.2383,6.02487 C13.2337,6.00846 13.2211,6.0006 13.2201,6.00028 L13.1231,6.00021556 L12.2425,6.22036 C12.0833,6.26017 11.9167,6.26017 11.7575,6.22036 L10.8769,6.00021556 L10.7808,6.00021556 C10.7803,6.00021556 10.7809,6.00021556 10.7808,6.00021556 C10.7799,6.00054 10.7663,6.00846 10.7617,6.02487 Z M15.06,11.1162 L14.8944,11.4474 C14.7507,11.7349 14.4775,11.9358 14.1602,11.9873 C13.8429,12.0388 13.5202,11.9346 13.2929,11.7073 L12.274,10.6884 L11.8944,11.4474 C11.7507,11.7349 11.4775,11.9358 11.1602,11.9873 C10.8429,12.0388 10.5202,11.9346 10.2929,11.7073 L9.16247,10.5769 C8.51658,12.1631 7.81637,13.695 7.17659,15.0215 C6.60703,16.2024 6.08085,17.2298 5.67575,18.0002 L18.3243,18.0002 C17.9192,17.2298 17.393,16.2024 16.8234,15.0215 C16.2565,13.846 15.642,12.5092 15.06,11.1162 Z"/></g></svg>

<svg xmlns="http://www.w3.org/2000/svg" width="24" height="24"><g fill="none" fill-rule="evenodd"><path d="M24 0v24H0V0zM12.594 23.258l-.012.002-.071.035-.02.004-.014-.004-.071-.036c-.01-.003-.019 0-.024.006l-.004.01-.017.428.005.02.01.013.104.074.015.004.012-.004.104-.074.012-.016.004-.017-.017-.427c-.002-.01-.009-.017-.016-.018m.264-.113-.014.002-.184.093-.01.01-.003.011.018.43.005.012.008.008.201.092c.012.004.023 0 .029-.008l.004-.014-.034-.614c-.003-.012-.01-.02-.02-.022m-.715.002a.023.023 0 0 0-.027.006l-.006.014-.034.614c0 .012.007.02.017.024l.015-.002.201-.093.01-.008.003-.011.018-.43-.003-.012-.01-.01z"/><path fill="#09244B" d="M3.788 17.291c-.148.281-.276.52-.38.71H3a1 1 0 1 0 0 2h18a1 1 0 1 0 0-2h-.409c-.103-.19-.23-.429-.38-.71a95.119 95.119 0 0 1-1.586-3.138c-1.235-2.56-2.654-5.81-3.462-8.671A2.025 2.025 0 0 0 13.22 4c-.154 0-.31-.008-.461.03L12 4.22l-.758-.19c-.15-.038-.307-.03-.461-.03-.922 0-1.702.624-1.944 1.482-.808 2.862-2.228 6.111-3.462 8.67a94.8 94.8 0 0 1-1.587 3.14m6.974-11.266a37.352 37.352 0 0 1-.813 2.51l.777.777.38-.759a1 1 0 0 1 1.601-.26l1.019 1.019.352-.704a37.55 37.55 0 0 1-.84-2.583A.042.042 0 0 0 13.22 6h-.097l-.88.22a1 1 0 0 1-.486 0l-.88-.22h-.096c-.001 0-.015.008-.02.025m4.298 5.091-.166.331a1 1 0 0 1-1.601.26l-1.019-1.019-.38.76a1 1 0 0 1-1.601.26l-1.13-1.131a78.62 78.62 0 0 1-1.986 4.445A97.044 97.044 0 0 1 5.676 18h12.648a97.119 97.119 0 0 1-1.5-2.979 80.711 80.711 0 0 1-1.764-3.905"/></g></svg>
